X: 16181
T: Appie McNabb
%R: air, minuet, waltz
B: James Oswald "The Caledonian Pocket Companion" v.1 b.6 p.18 (and top 3 staffs of p.19)
S: https://ia800501.us.archive.org/18/items/caledonianpocket01rugg/caledonianpocket01rugg_bw.pdf
Z: 2020 John Chambers <jc:trillian.mit.edu>
M: 3/4
L: 1/8
K: Gdor
%%slurgraces 1
%%graceslurs 1
"_Slow"A>c |\
d4(c/d/)f | (d2c2)A2 | G3dTc>A | {A2}G4(F/G/A/B/) |\
c4(d/e/f) | (dc)(BA)(GF) | F3G (A/G/F/G/) | F4 (c/d/e) |\
(fef)gfe | d2e2f2 |
g3fTe>d | c2d2(fg) |\
(a2g2)f2 | d2(f<d)(c<A) | d2G2(G>A) | G4 :: (d/e/^f) |\
g2G2d2 | g2G2d2 | g2(dc)(BA) | G4(c/d/e) |\
f2F2c2 | f2F2c2 |
f2(cB)(AG) | F4(f/g/a) |\
b3a (g/a/b) | {b}a3g (f/g/a) | g>fg>ag>f | d4b>a |\
{a2}g4f2 | d>fd>cA>c | {c}d2G2G>A | G4 :: A>c |
d4f>e | {e2}d4(c<A) | G2(d<c) (A<G) | G4(A>B) |\
(c2d2)e2 | f3g (f/g/a) | F2(c<A) G>A | F4(c/d/e) |\
(f2Te2)d2 | (g2Tf2)e2 | a2(gf)(ed) | (c2a2)g2 |
{g2}f4e2 | (dc) (AG)(Ac) | {c}d2G2G>A | G4 :: (d/e/^f) |\
g4b>a | g2B>dc>_e | d2(c>B)(A>B) | G4(c/d/=e) |\
f>ga2g2 | f3d (c/d/f) |
(cA)(GF)(G>A) | F4(f/g/a) |\
b2b2Ta>g | a2a2(b/a/g/f/) | (ga)(ba)(gf) | {e2}d4b>a |\
{a2}g4f2 | d>e dc (A/G/A/c/) | {c}d2G2GA | G4 :| 
"^Gig"|:[M:6/8] "_Brisk"(A/c/) |\
dfd dcA | G2G G2A | cdc cAG | "P.19" FGF F2e |\
fef def | ged cag | fed cAc | d2G G2 :|
|: e/^f/ |\
gag gdB | GAG G2e | =fgf fcA | FGF F2e |\
fef def | ged cag | fed cAc | d2G G2 :|
